X: 38860
T: Sunday Was My Wedding Day
R: jig
M: 6/8
K: Eminor
c|:BEE dEE|BEE FEF|DED FEF|GAB ded|
BEE dEE|def gfg|afd AFD|1 FEE E2 c:|2 FEE E2f||
|:ede faf|edf edB|AFA DFA|def afa|
geg fdf|ede fdB|AFA dAF|1 EFE E2f:|2 EFE E2c||

